X:387
T: Capt. MacDonald's Favorite
N: O'Farrell's Pocket Companion v.4 (Sky ed. p.166)
N: "Irish"
M: 9/8
L: 1/8
Q: 300
R: slip jig
K: Em
g| dBB BAB GEE| dBG ABd e2g| dBB B2A GAB| BAG ABd e2 :|
f| gfg egf/e/ dBB| gfg agf e2f| gfg agf efg| dBG ABd e2 :|
